img/product-flower-1.svg

<svg width="155" height="149" viewBox="0 0 155 149" fill="none" xmlns="http://www.w3.org/2000/svg">
<path d="M91.0187 0.696534L94.3462 0H101.584L109.331 2.78614L114.992 7.66188L118.021 12.5376L119.584 20.1995L118.441 29.2544L114.702 37.6128L109.685 45.2747L104.085 51.5435L111.585 46.6678L121.021 42.4886L126.36 41.0955H138.862L145.293 43.8817L150.954 48.7574L153.945 54.3297L155 59.2054L154.552 67.5638L151.584 73.8326L146.679 79.4049L141.228 82.8876L136.51 84.9772L129.197 86.3702H118.668L112.125 85.6737L121.697 91.246L127.978 96.8182L132.906 103.087L135.165 110.052L135.711 112.142L135.375 118.411L132.332 126.073L126.036 133.038L118.611 136.521L115.942 137.217H108.046L100.957 134.431L94.638 129.555L89.7099 123.287L87.9226 119.804L84.0492 118.411H82.7331L82.397 124.68L79.2794 133.735L74.9578 140.7L69.4322 145.576L63.6639 148.223H50.5698L45.0853 145.576L40.0452 141.396L37.0165 136.521L35.4159 129.555L35.752 123.287L38.1743 114.928L42.5332 107.266L50.9897 96.8182L47.5502 99.6044L37.3811 105.177L28.0194 107.963H16.833L9.74409 105.177L4.70399 100.997L1.09197 94.7286L0 90.5494L0.485505 81.4945L2.75835 75.9222L7.00526 70.3499L14.5049 65.4742L25.1827 62.6881H37.0271L43.57 63.3846L34.6191 58.5089L27.0589 52.2401L22.7516 46.6678L19.8349 39.7024L19.3263 36.9163L19.6997 29.951L22.7053 22.9856L26.9522 17.4134L33.7565 13.2341L37.7793 11.8411H47.6497L53.4599 13.9307L59.7787 18.8064L64.1234 23.6822L68.9021 32.7371L71.1981 39.0059L72.715 22.9856L75.7953 14.6272L80.0796 8.35841L86.3005 2.78614L91.0187 0.696534Z" fill="#F1C85F"/>
<path d="M65.2108 56.3282L74.3066 52.4954L81.9211 52.3101L89.031 54.6051L93.9514 58.5784L96.8166 62.662L99.1772 69.2258L99.4826 75.8997L97.7328 82.6839L92.715 90.0893L88.3361 93.4462L81.6658 96.257L74.8938 96.8431L68.6263 94.949L63.3356 91.8875L58.5494 86.3458L55.9528 79.1257L56.1519 69.9716L58.7442 63.5883L63.6277 57.7512L65.2108 56.3282Z" fill="#FDFDFD"/>
</svg>

<svg width="155" height="149" fill="none" xmlns="http://www.w3.org/2000/svg"><path d="M91.019.697L94.346 0h7.238l7.747 2.786 5.661 4.876 3.029 4.876 1.563 7.662-1.143 9.054-3.739 8.359-5.017 7.662-5.6 6.269 7.5-4.876 9.436-4.18 5.339-1.392h12.502l6.431 2.786 5.661 4.875 2.991 5.573L155 59.205l-.448 8.359-2.968 6.269-4.905 5.572-5.451 3.483-4.718 2.09-7.313 1.392h-10.529l-6.543-.696 9.572 5.572 6.281 5.572 4.928 6.269 2.259 6.965.546 2.09-.336 6.269-3.043 7.662-6.296 6.965-7.425 3.483-2.669.696h-7.896l-7.089-2.786-6.319-4.876-4.928-6.268-1.787-3.483-3.874-1.393h-1.316l-.336 6.269-3.118 9.055-4.321 6.965-5.526 4.876-5.768 2.647H50.57l-5.485-2.647-5.04-4.18-3.029-4.875-1.6-6.966.336-6.268 2.422-8.359 4.36-7.662 8.456-10.448-3.44 2.786-10.169 5.573-9.362 2.786H16.833l-7.089-2.786-5.04-4.18-3.612-6.268L0 90.549l.486-9.055 2.272-5.572 4.247-5.572 7.5-4.876 10.678-2.786h11.844l6.543.697-8.95-4.876-7.561-6.269-4.307-5.572-2.917-6.966-.509-2.786.374-6.965 3.005-6.965 4.247-5.573 6.805-4.179 4.022-1.393h9.87l5.81 2.09 6.32 4.875 4.344 4.876 4.78 9.055 2.295 6.269 1.517-16.02 3.08-8.359 4.285-6.269 6.22-5.572 4.72-2.09z" fill="#F1C85F"/><path d="M65.21 56.328l9.097-3.833 7.614-.185 7.11 2.295 4.92 3.973 2.866 4.084 2.36 6.564.306 6.674-1.75 6.784-5.018 7.405-4.379 3.357-6.67 2.811-6.772.586-6.268-1.894-5.29-3.061-4.787-5.542-2.596-7.22.199-9.154 2.592-6.384 4.884-5.837 1.583-1.423z" fill="#FDFDFD"/></svg>
